X:1
T:Round the Throne in Glory
T:Round the Throne in Glory
T:R. A. Glenn, 1877
T:Alfred Arthur Graley, 1865
T:Public Domain Courtesy of the Cyber Hymnal™
T:Public Domain Courtesy of the Cyber Hymnal™
C:R. A. Glenn, 1877
Z:Public Domain
Z:Courtesy of the Cyber Hymnal™
%%score 1 2
L:1/8
Q:1/4=94
M:4/4
K:Bb
V:1 treble 
V:2 bass 
V:1
 [DF]>[EG] [DF]>[EG] [DF]2 [B,D]2 | [DB]>[DB] [Ec]>[DB] [DF]4 | [EG]>[EG] [EG]>[EG] [GB]2 [EG]2 | %3
w: 1.~Round the throne in glo- ry|Hap- py child- ren throng,|And re- demp- tion’s sto- ry|
w: 2.~Robes of snow- y white- ness,|Beau- ti- ful and rare;|Crowns of ra- diant bright- ness,|
w: 3.~Child- ren now so- jour- ning|In a world of sin;|From your fol- lies turn- ing,|
 [DF]>[EG] [DF]>[B,D] [DF]4 | [DF]>[DF] [DF]>[EG] [DF]2 [B,D]2 | [DB]>[Fd] [Fc]>[FB] [EG]4 | %6
w: Wakes the harp and song.|On the ver- dant moun- tain,|By the shin- ing stream,|
w: Such those child- ren wear.|Safe from death, be- reave- ment,|Sor- row and the grave;|
w: Strive to en- ter in;|Let your young af- fec- tions|Round your Sav- ior twine,|
 [EG]>[EG] [EG]>[EG] [GB]2 [EG]2 | [DF]>[DF] [Fd]>[Ec] [DB]4 || %8
w: O the liv- ing foun- tain,|Je- sus is their theme.|
w: Safe from sin’s en- slave- ment,|Vic- tory’s palm they wave.|
w: And ’mid Heav’n’s at- trac- tions,|Ye shall sing and shine.|
"^Refrain" [Fc]>[Fc] [Fc]>[Fc] [Fc]2 [FA]2 | (3[Fd][Fd][Fd] [Fd]>[Ec] [DB]4 | %10
w: ||
w: Round the throne in glo- ry,|Thou- sands of child- ren stand,|
w: ||
 [EG]>[EG] [EG]>[EG] [GB]2 [EG]2 | [DF]>[EG] [DF]>[B,D] [DF]4 | [DF]>[DF] [DF]>[EG] [DF]2 [B,D]2 | %13
w: |||
w: Sing- ing with the an- gels|In that hap- py land,|Voic- es sweet- ly blend- ing|
w: |||
 [DB]>[Fd] [Fc]>[FB] [EG]4 | [EG]>[EG] [EG]>[EG] [GB]2 [EG]2 | [DF]>[DF] [Fd]>[Ec] [DB]4 |] %16
w: |||
w: As they joy- ful sing,|Glo- ry be for- ev- er|To our heav’n- ly king.|
w: |||
V:2
 [B,,B,]>[B,,B,] [B,,B,]>[B,,B,] [B,,B,]2 [B,,F,]2 | [B,,B,]>[B,,B,] [B,,B,]>[B,,B,] [B,,B,]4 | %2
 [E,B,]>[E,B,] [E,B,]>[E,B,] [E,B,]2 [E,B,]2 | [B,,B,]>[B,,B,] [B,,B,]>[B,,F,] [B,,B,]4 | %4
 [B,,B,]>[B,,B,] [B,,B,]>[B,,B,] [B,,B,]2 [B,,F,]2 | [B,,B,]>[B,,B,] [C,A,]>[D,B,] [E,B,]4 | %6
 [E,B,]>[E,B,] [E,B,]>[E,B,] [E,B,]2 [E,B,]2 | [F,B,]>[F,B,] [F,B,]>[F,A,] [B,,B,]4 || %8
 [F,A,]>[F,A,] [F,A,]>[F,A,] [F,A,]2 [F,C]2 | (3[B,,B,][B,,B,][B,,B,] [B,,B,]>[B,,B,] [B,,B,]4 | %10
 [E,B,]>[E,B,] [E,B,]>[E,B,] [E,B,]2 [E,B,]2 | [B,,B,]>[B,,B,] [B,,B,]>[B,,F,] [B,,B,]4 | %12
 [B,,B,]>[B,,B,] [B,,B,]>[B,,B,] [B,,B,]2 [B,,F,]2 | [B,,B,]>[B,,B,] [C,A,]>[D,B,] [E,B,]4 | %14
 [E,B,]>[E,B,] [E,B,]>[E,B,] [E,B,]2 [E,B,]2 | [F,B,]>[F,B,] [F,B,]>[F,A,] [B,,B,]4 |] %16

